src/assets/about/htmlCard.svg

<svg xmlns="http://www.w3.org/2000/svg" width="269" height="84" fill="none"><g filter="url(#a)"><rect width="259" height="72.933" x="5" y=".432" fill="#fff" rx="36.466"/></g><path fill="#000" d="M109.536 27.96V45h-4.68v-6.672h-5.712V45h-4.68V27.96h4.68v6.288h5.712V27.96h4.68Zm16.2 4.08h-4.896V45h-4.68V32.04h-4.92v-4.08h14.496v4.08ZM140.329 45v-8.976l-2.856 6.312h-2.496l-2.856-6.312V45h-4.68V27.96h5.112l3.672 8.016 3.696-8.016h5.088V45h-4.68Zm7.596 0V27.96h4.68v12.96h7.728V45h-12.408Zm24.719 0-7.584-8.112a28.839 28.839 0 0 1-1.608-1.848c-.4-.512-.688-.992-.864-1.44a4.323 4.323 0 0 1-.24-1.464c0-.928.216-1.72.648-2.376a4.053 4.053 0 0 1 1.776-1.488c.768-.352 1.624-.528 2.568-.528.832 0 1.624.144 2.376.432.768.272 1.4.712 1.896 1.32.496.592.744 1.376.744 2.352 0 .784-.176 1.504-.528 2.16a6.226 6.226 0 0 1-1.416 1.8 11.75 11.75 0 0 1-2.04 1.488 38.1 38.1 0 0 0-1.392.864c-.4.256-.712.52-.936.792a1.278 1.278 0 0 0-.336.864c0 .224.064.488.192.792.144.288.368.544.672.768.32.208.736.312 1.248.312.528 0 1.072-.136 1.632-.408.576-.288 1.104-.712 1.584-1.272.496-.56.888-1.256 1.176-2.088.304-.832.456-1.8.456-2.904h3.672c-.016 1.744-.288 3.264-.816 4.56-.528 1.28-1.232 2.344-2.112 3.192a8.757 8.757 0 0 1-2.88 1.872c-1.056.4-2.12.6-3.192.6-1.312 0-2.416-.264-3.312-.792-.896-.544-1.568-1.232-2.016-2.064-.448-.832-.672-1.688-.672-2.568 0-.928.208-1.736.624-2.424a7.408 7.408 0 0 1 1.584-1.8 17.256 17.256 0 0 1 1.824-1.32c.688-.432 1.232-.768 1.632-1.008.416-.24.712-.456.888-.648a1.03 1.03 0 0 0 .288-.72c0-.272-.08-.48-.24-.624-.144-.144-.344-.216-.6-.216a.972.972 0 0 0-.48.12.77.77 0 0 0-.288.312c-.064.128-.096.28-.096.456 0 .208.064.4.192.576.144.16.376.384.696.672.32.272.752.704 1.296 1.296L178.62 45h-5.976Zm6.361-8.664c0-1.04.192-2.056.576-3.048.4-1.008.976-1.92 1.728-2.736a8.26 8.26 0 0 1 2.736-1.944c1.088-.496 2.312-.744 3.672-.744 1.632 0 3.056.344 4.272 1.032 1.216.672 2.12 1.568 2.712 2.688l-3.576 2.544c-.208-.56-.512-.992-.912-1.296a3.262 3.262 0 0 0-1.272-.624 4.79 4.79 0 0 0-1.32-.192c-.672 0-1.256.136-1.752.408-.48.256-.88.6-1.2 1.032a5.006 5.006 0 0 0-.696 1.44 5.997 5.997 0 0 0-.216 1.584c0 .592.088 1.16.264 1.704.176.544.432 1.032.768 1.464.336.416.744.744 1.224.984.496.24 1.048.36 1.656.36a4.79 4.79 0 0 0 1.32-.192 3.67 3.67 0 0 0 1.224-.672c.368-.304.648-.712.84-1.224l3.816 2.28c-.336.832-.896 1.544-1.68 2.136a8.932 8.932 0 0 1-2.664 1.368c-.992.304-1.976.456-2.952.456-1.264 0-2.424-.248-3.48-.744a9.16 9.16 0 0 1-2.712-2.016 9.63 9.63 0 0 1-1.752-2.832 8.708 8.708 0 0 1-.624-3.216Zm27.849-2.808-.408-.24a9.817 9.817 0 0 0-1.08-.528 11.162 11.162 0 0 0-1.464-.552 5.36 5.36 0 0 0-1.56-.24c-.4 0-.728.064-.984.192s-.384.344-.384.648c0 .288.128.52.384.696.256.176.616.336 1.08.48.48.144 1.048.32 1.704.528 1.056.32 1.968.688 2.736 1.104.768.416 1.36.952 1.776 1.608.416.64.624 1.496.624 2.568 0 1.024-.184 1.888-.552 2.592a4.508 4.508 0 0 1-1.488 1.656 6.63 6.63 0 0 1-2.088.912c-.768.176-1.552.264-2.352.264-.816 0-1.672-.08-2.568-.24a19.58 19.58 0 0 1-2.568-.696 14.273 14.273 0 0 1-2.28-1.056l2.016-4.104.48.288c.32.192.744.408 1.272.648.528.24 1.112.456 1.752.648a6.976 6.976 0 0 0 1.968.288c.512 0 .864-.064 1.056-.192.208-.144.312-.328.312-.552 0-.336-.176-.592-.528-.768-.352-.192-.816-.368-1.392-.528-.56-.176-1.184-.376-1.872-.6-.992-.336-1.808-.712-2.448-1.128-.64-.432-1.112-.936-1.416-1.512-.304-.592-.456-1.304-.456-2.136 0-1.264.296-2.32.888-3.168a5.572 5.572 0 0 1 2.328-1.92 7.446 7.446 0 0 1 3.144-.672 9.14 9.14 0 0 1 2.4.312c.784.192 1.512.432 2.184.72.688.288 1.288.56 1.8.816l-2.016 3.864Zm14.813 0-.408-.24a9.817 9.817 0 0 0-1.08-.528 11.162 11.162 0 0 0-1.464-.552 5.36 5.36 0 0 0-1.56-.24c-.4 0-.728.064-.984.192s-.384.344-.384.648c0 .288.128.52.384.696.256.176.616.336 1.08.48.48.144 1.048.32 1.704.528 1.056.32 1.968.688 2.736 1.104.768.416 1.36.952 1.776 1.608.416.64.624 1.496.624 2.568 0 1.024-.184 1.888-.552 2.592a4.508 4.508 0 0 1-1.488 1.656 6.63 6.63 0 0 1-2.088.912c-.768.176-1.552.264-2.352.264-.816 0-1.672-.08-2.568-.24a19.58 19.58 0 0 1-2.568-.696 14.273 14.273 0 0 1-2.28-1.056l2.016-4.104.48.288c.32.192.744.408 1.272.648.528.24 1.112.456 1.752.648a6.976 6.976 0 0 0 1.968.288c.512 0 .864-.064 1.056-.192.208-.144.312-.328.312-.552 0-.336-.176-.592-.528-.768-.352-.192-.816-.368-1.392-.528-.56-.176-1.184-.376-1.872-.6-.992-.336-1.808-.712-2.448-1.128-.64-.432-1.112-.936-1.416-1.512-.304-.592-.456-1.304-.456-2.136 0-1.264.296-2.32.888-3.168a5.572 5.572 0 0 1 2.328-1.92 7.446 7.446 0 0 1 3.144-.672 9.14 9.14 0 0 1 2.4.312c.784.192 1.512.432 2.184.72.688.288 1.288.56 1.8.816l-2.016 3.864Z"/><g clip-path="url(#b)"><path fill="#E44D26" d="m78.927 19.39-3.631 38.224-16.322 4.252-16.277-4.246-3.628-38.23h39.858Z"/><path fill="#F16529" d="m58.998 58.616 13.19-3.436 3.102-32.665H58.998v36.1Z"/><path fill="#EBEBEB" d="M51.94 31.893h7.058v-4.689H46.486l.12 1.258 1.226 12.921h11.166v-4.689h-6.602l-.456-4.801Zm1.124 11.835h-5.009l.7 7.362 10.22 2.666.023-.006v-4.878l-.022.005-5.557-1.41-.355-3.74Z"/><path fill="#000" d="M42.778 9h2.536v2.354h2.32V9h2.535v7.129h-2.536v-2.387h-2.32v2.387h-2.535V9Zm10.726 2.364h-2.232V9h7.001v2.364H56.04v4.765h-2.536v-4.765ZM59.384 9h2.644l1.627 2.505L65.28 9h2.645v7.129h-2.526v-3.534l-1.744 2.535h-.044l-1.746-2.535v3.534h-2.48V9Zm9.803 0h2.536v4.773h3.566v2.356h-6.103V9Z"/><path fill="#fff" d="M58.981 41.383h6.144l-.579 6.081-5.565 1.412v4.878l10.23-2.664.074-.792 1.173-12.345.122-1.259H58.98v4.69Zm0-9.501v.011h12.053l.1-1.054.227-2.377.12-1.258h-12.5v4.678Z"/></g><defs><clipPath id="b"><path fill="#fff" d="M39 9h40v53H39z"/></clipPath><filter id="a" width="269" height="82.933" x="0" y=".432" color-interpolation-filters="sRGB" filterUnits="userSpaceOnUse"><feFlood flood-opacity="0" result="BackgroundImageFix"/><feColorMatrix in="SourceAlpha" result="hardAlpha" values="0 0 0 0 0 0 0 0 0 0 0 0 0 0 0 0 0 0 127 0"/><feOffset dy="5"/><feGaussianBlur stdDeviation="2.5"/><feComposite in2="hardAlpha" operator="out"/><feColorMatrix values="0 0 0 0 0 0 0 0 0 0 0 0 0 0 0 0 0 0 0.25 0"/><feBlend in2="BackgroundImageFix" result="effect1_dropShadow_330_324"/><feBlend in="SourceGraphic" in2="effect1_dropShadow_330_324" result="shape"/></filter></defs></svg>

<svg width="269" height="84" viewBox="0 0 269 84" fill="none" xmlns="http://www.w3.org/2000/svg">
<g filter="url(#filter0_d_330_324)">
<rect x="5" y="0.432251" width="259" height="72.9327" rx="36.4664" fill="white"/>
</g>
<path d="M109.536 27.96V45H104.856V38.328H99.144V45H94.464V27.96H99.144V34.248H104.856V27.96H109.536ZM125.736 32.04H120.84V45H116.16V32.04H111.24V27.96H125.736V32.04ZM140.329 45V36.024L137.473 42.336H134.977L132.121 36.024V45H127.441V27.96H132.553L136.225 35.976L139.921 27.96H145.009V45H140.329ZM147.925 45V27.96H152.605V40.92H160.333V45H147.925ZM172.644 45L165.06 36.888C164.388 36.168 163.852 35.552 163.452 35.04C163.052 34.528 162.764 34.048 162.588 33.6C162.428 33.152 162.348 32.664 162.348 32.136C162.348 31.208 162.564 30.416 162.996 29.76C163.428 29.104 164.02 28.608 164.772 28.272C165.54 27.92 166.396 27.744 167.34 27.744C168.172 27.744 168.964 27.888 169.716 28.176C170.484 28.448 171.116 28.888 171.612 29.496C172.108 30.088 172.356 30.872 172.356 31.848C172.356 32.632 172.18 33.352 171.828 34.008C171.492 34.664 171.02 35.264 170.412 35.808C169.82 36.352 169.14 36.848 168.372 37.296C167.86 37.6 167.396 37.888 166.98 38.16C166.58 38.416 166.268 38.68 166.044 38.952C165.82 39.208 165.708 39.496 165.708 39.816C165.708 40.04 165.772 40.304 165.9 40.608C166.044 40.896 166.268 41.152 166.572 41.376C166.892 41.584 167.308 41.688 167.82 41.688C168.348 41.688 168.892 41.552 169.452 41.28C170.028 40.992 170.556 40.568 171.036 40.008C171.532 39.448 171.924 38.752 172.212 37.92C172.516 37.088 172.668 36.12 172.668 35.016H176.34C176.324 36.76 176.052 38.28 175.524 39.576C174.996 40.856 174.292 41.92 173.412 42.768C172.548 43.6 171.588 44.224 170.532 44.64C169.476 45.04 168.412 45.24 167.34 45.24C166.028 45.24 164.924 44.976 164.028 44.448C163.132 43.904 162.46 43.216 162.012 42.384C161.564 41.552 161.34 40.696 161.34 39.816C161.34 38.888 161.548 38.08 161.964 37.392C162.396 36.704 162.924 36.104 163.548 35.592C164.172 35.08 164.78 34.64 165.372 34.272C166.06 33.84 166.604 33.504 167.004 33.264C167.42 33.024 167.716 32.808 167.892 32.616C168.084 32.408 168.18 32.168 168.18 31.896C168.18 31.624 168.1 31.416 167.94 31.272C167.796 31.128 167.596 31.056 167.34 31.056C167.164 31.056 167.004 31.096 166.86 31.176C166.732 31.256 166.636 31.36 166.572 31.488C166.508 31.616 166.476 31.768 166.476 31.944C166.476 32.152 166.54 32.344 166.668 32.52C166.812 32.68 167.044 32.904 167.364 33.192C167.684 33.464 168.116 33.896 168.66 34.488L178.62 45H172.644ZM179.005 36.336C179.005 35.296 179.197 34.28 179.581 33.288C179.981 32.28 180.557 31.368 181.309 30.552C182.061 29.736 182.973 29.088 184.045 28.608C185.133 28.112 186.357 27.864 187.717 27.864C189.349 27.864 190.773 28.208 191.989 28.896C193.205 29.568 194.109 30.464 194.701 31.584L191.125 34.128C190.917 33.568 190.613 33.136 190.213 32.832C189.829 32.528 189.405 32.32 188.941 32.208C188.493 32.08 188.053 32.016 187.621 32.016C186.949 32.016 186.365 32.152 185.869 32.424C185.389 32.68 184.989 33.024 184.669 33.456C184.365 33.888 184.133 34.368 183.973 34.896C183.829 35.424 183.757 35.952 183.757 36.48C183.757 37.072 183.845 37.64 184.021 38.184C184.197 38.728 184.453 39.216 184.789 39.648C185.125 40.064 185.533 40.392 186.013 40.632C186.509 40.872 187.061 40.992 187.669 40.992C188.101 40.992 188.541 40.928 188.989 40.8C189.437 40.656 189.845 40.432 190.213 40.128C190.581 39.824 190.861 39.416 191.053 38.904L194.869 41.184C194.533 42.016 193.973 42.728 193.189 43.32C192.405 43.912 191.517 44.368 190.525 44.688C189.533 44.992 188.549 45.144 187.573 45.144C186.309 45.144 185.149 44.896 184.093 44.4C183.053 43.888 182.149 43.216 181.381 42.384C180.629 41.536 180.045 40.592 179.629 39.552C179.213 38.496 179.005 37.424 179.005 36.336ZM206.854 33.528C206.854 33.528 206.718 33.448 206.446 33.288C206.174 33.128 205.814 32.952 205.366 32.76C204.918 32.552 204.43 32.368 203.902 32.208C203.374 32.048 202.854 31.968 202.342 31.968C201.942 31.968 201.614 32.032 201.358 32.16C201.102 32.288 200.974 32.504 200.974 32.808C200.974 33.096 201.102 33.328 201.358 33.504C201.614 33.68 201.974 33.84 202.438 33.984C202.918 34.128 203.486 34.304 204.142 34.512C205.198 34.832 206.11 35.2 206.878 35.616C207.646 36.032 208.238 36.568 208.654 37.224C209.07 37.864 209.278 38.72 209.278 39.792C209.278 40.816 209.094 41.68 208.726 42.384C208.358 43.072 207.862 43.624 207.238 44.04C206.614 44.456 205.918 44.76 205.15 44.952C204.382 45.128 203.598 45.216 202.798 45.216C201.982 45.216 201.126 45.136 200.23 44.976C199.35 44.8 198.494 44.568 197.662 44.28C196.83 43.976 196.07 43.624 195.382 43.224L197.398 39.12C197.398 39.12 197.558 39.216 197.878 39.408C198.198 39.6 198.622 39.816 199.15 40.056C199.678 40.296 200.262 40.512 200.902 40.704C201.558 40.896 202.214 40.992 202.87 40.992C203.382 40.992 203.734 40.928 203.926 40.8C204.134 40.656 204.238 40.472 204.238 40.248C204.238 39.912 204.062 39.656 203.71 39.48C203.358 39.288 202.894 39.112 202.318 38.952C201.758 38.776 201.134 38.576 200.446 38.352C199.454 38.016 198.638 37.64 197.998 37.224C197.358 36.792 196.886 36.288 196.582 35.712C196.278 35.12 196.126 34.408 196.126 33.576C196.126 32.312 196.422 31.256 197.014 30.408C197.606 29.56 198.382 28.92 199.342 28.488C200.318 28.04 201.366 27.816 202.486 27.816C203.318 27.816 204.118 27.92 204.886 28.128C205.67 28.32 206.398 28.56 207.07 28.848C207.758 29.136 208.358 29.408 208.87 29.664L206.854 33.528ZM221.667 33.528C221.667 33.528 221.531 33.448 221.259 33.288C220.987 33.128 220.627 32.952 220.179 32.76C219.731 32.552 219.243 32.368 218.715 32.208C218.187 32.048 217.667 31.968 217.155 31.968C216.755 31.968 216.427 32.032 216.171 32.16C215.915 32.288 215.787 32.504 215.787 32.808C215.787 33.096 215.915 33.328 216.171 33.504C216.427 33.68 216.787 33.84 217.251 33.984C217.731 34.128 218.299 34.304 218.955 34.512C220.011 34.832 220.923 35.2 221.691 35.616C222.459 36.032 223.051 36.568 223.467 37.224C223.883 37.864 224.091 38.72 224.091 39.792C224.091 40.816 223.907 41.68 223.539 42.384C223.171 43.072 222.675 43.624 222.051 44.04C221.427 44.456 220.731 44.76 219.963 44.952C219.195 45.128 218.411 45.216 217.611 45.216C216.795 45.216 215.939 45.136 215.043 44.976C214.163 44.8 213.307 44.568 212.475 44.28C211.643 43.976 210.883 43.624 210.195 43.224L212.211 39.12C212.211 39.12 212.371 39.216 212.691 39.408C213.011 39.6 213.435 39.816 213.963 40.056C214.491 40.296 215.075 40.512 215.715 40.704C216.371 40.896 217.027 40.992 217.683 40.992C218.195 40.992 218.547 40.928 218.739 40.8C218.947 40.656 219.051 40.472 219.051 40.248C219.051 39.912 218.875 39.656 218.523 39.48C218.171 39.288 217.707 39.112 217.131 38.952C216.571 38.776 215.947 38.576 215.259 38.352C214.267 38.016 213.451 37.64 212.811 37.224C212.171 36.792 211.699 36.288 211.395 35.712C211.091 35.12 210.939 34.408 210.939 33.576C210.939 32.312 211.235 31.256 211.827 30.408C212.419 29.56 213.195 28.92 214.155 28.488C215.131 28.04 216.179 27.816 217.299 27.816C218.131 27.816 218.931 27.92 219.699 28.128C220.483 28.32 221.211 28.56 221.883 28.848C222.571 29.136 223.171 29.408 223.683 29.664L221.667 33.528Z" fill="black"/>
<g clip-path="url(#clip0_330_324)">
<path d="M78.927 19.3895L75.2959 57.6141L58.9738 61.8662L42.6967 57.62L39.0693 19.3895H78.927Z" fill="#E44D26"/>
<path d="M58.9985 58.6159L72.1876 55.18L75.2905 22.5153H58.9985V58.6159Z" fill="#F16529"/>
<path d="M51.9395 31.893H58.9983V27.2042H46.4863L46.6057 28.4621L47.8322 41.3833H58.9983V36.6945H52.3955L51.9395 31.893ZM53.0641 43.7277H48.0551L48.7541 51.0899L58.9753 53.756L58.9983 53.7502V48.8718L58.9764 48.8773L53.4193 47.4673L53.0641 43.7277Z" fill="#EBEBEB"/>
<path d="M42.7778 9H45.3136V11.3542H47.6332V9H50.1691V16.129H47.6334V13.7418H45.3137V16.129H42.778L42.7778 9ZM53.5035 11.3642H51.2715V9H58.2731V11.3642H56.0397V16.129H53.504V11.3642H53.5035ZM59.3843 9H62.0283L63.6547 11.5049L65.2796 9H67.9247V16.129H65.3992V12.5955L63.6547 15.1302H63.611L61.8653 12.5955V16.129H59.3843V9ZM69.1866 9H71.7231V13.7726H75.289V16.129H69.1864V9H69.1866Z" fill="black"/>
<path d="M58.9811 41.3833H65.1254L64.5461 47.4643L58.981 48.8758V53.7538L69.2103 51.0899L69.2853 50.2977L70.458 37.9535L70.5797 36.6945H58.9811V41.3833ZM58.9811 31.8816V31.893H71.0337L71.1337 30.8392L71.3612 28.4621L71.4804 27.2042H58.9811V31.8816Z" fill="white"/>
</g>
<defs>
<filter id="filter0_d_330_324" x="0" y="0.432251" width="269" height="82.9327" filterUnits="userSpaceOnUse" color-interpolation-filters="sRGB">
<feFlood flood-opacity="0" result="BackgroundImageFix"/>
<feColorMatrix in="SourceAlpha" type="matrix" values="0 0 0 0 0 0 0 0 0 0 0 0 0 0 0 0 0 0 127 0" result="hardAlpha"/>
<feOffset dy="5"/>
<feGaussianBlur stdDeviation="2.5"/>
<feComposite in2="hardAlpha" operator="out"/>
<feColorMatrix type="matrix" values="0 0 0 0 0 0 0 0 0 0 0 0 0 0 0 0 0 0 0.25 0"/>
<feBlend mode="normal" in2="BackgroundImageFix" result="effect1_dropShadow_330_324"/>
<feBlend mode="normal" in="SourceGraphic" in2="effect1_dropShadow_330_324" result="shape"/>
</filter>
<clipPath id="clip0_330_324">
<rect width="40" height="53" fill="white" transform="translate(39 9)"/>
</clipPath>
</defs>
</svg>
